public/assets/images/logo-reddit3.svg

<svg width="46" height="45" viewBox="0 0 46 45" fill="none" xmlns="http://www.w3.org/2000/svg">
<path d="M26.3161 24.308C26.3161 24.7876 26.5066 25.2474 26.8456 25.5865C27.1847 25.9256 27.6446 26.1161 28.1241 26.1161C28.6036 26.1161 29.0635 25.9256 29.4026 25.5865C29.7417 25.2474 29.9322 24.7876 29.9322 24.308C29.9322 23.8285 29.7417 23.3686 29.4026 23.0296C29.0635 22.6905 28.6036 22.5 28.1241 22.5C27.6446 22.5 27.1847 22.6905 26.8456 23.0296C26.5066 23.3686 26.3161 23.8285 26.3161 24.308ZM33.5482 18.8839C33.206 18.8837 32.8708 18.9809 32.5818 19.1641C32.2927 19.3473 32.0618 19.609 31.916 19.9185C32.8602 20.6367 33.6437 21.4604 34.2212 22.3694C34.6117 22.2137 34.9357 21.9266 35.1374 21.5577C35.339 21.1888 35.4058 20.7612 35.3261 20.3484C35.2464 19.9356 35.0252 19.5635 34.7007 19.2962C34.3762 19.0289 33.9686 18.8831 33.5482 18.8839ZM22.7 0C10.2748 0 0.200012 10.0748 0.200012 22.5C0.200012 34.9252 10.2748 45 22.7 45C35.1252 45 45.2 34.9252 45.2 22.5C45.2 10.0748 35.1252 0 22.7 0ZM35.0047 24.0017C35.2357 24.6797 35.3563 25.3878 35.3563 26.1161C35.3563 31.1083 29.6911 35.1562 22.7 35.1562C15.7089 35.1562 10.0438 31.1083 10.0438 26.1161C10.0438 25.3878 10.1643 24.6797 10.3953 24.0017C9.63633 23.667 9.01543 23.0817 8.63672 22.3437C8.258 21.6057 8.14448 20.7599 8.31519 19.9482C8.48589 19.1365 8.93045 18.4081 9.57434 17.8851C10.2182 17.3622 11.0223 17.0765 11.8518 17.0759C13.2128 17.0759 14.3931 17.8242 15.0108 18.9342C16.8289 17.9397 19.0387 17.2868 21.4444 17.1211L24.3775 10.5368C24.5934 10.0446 25.1409 9.79353 25.6582 9.9442L30.2586 11.2751C30.5451 10.7432 31.0008 10.3221 31.5537 10.0785C32.1066 9.83496 32.7249 9.78285 33.3107 9.93046C33.8966 10.0781 34.4164 10.417 34.7878 10.8934C35.1593 11.3699 35.3611 11.9567 35.3613 12.5608C35.3613 14.0575 34.1459 15.2729 32.6492 15.2729C31.469 15.2729 30.4645 14.5145 30.0929 13.4598L25.9645 12.2695L23.8049 17.1161C26.2709 17.2667 28.536 17.9247 30.3942 18.9392C31.012 17.8292 32.1922 17.0809 33.5532 17.0809C35.5521 17.0809 37.1693 18.6981 37.1693 20.697C37.1643 22.1685 36.2753 23.4392 35.0047 24.0017ZM26.4015 28.1702C25.6531 28.7578 24.1766 29.3906 22.7 29.3906C21.2234 29.3906 19.7419 28.7578 18.9986 28.1702C18.5315 27.8036 17.8585 27.8839 17.4919 28.351C17.1252 28.8181 17.2056 29.4911 17.6727 29.8577C18.9634 30.8823 20.9372 31.5402 22.7 31.5402C24.4628 31.5402 26.4366 30.8823 27.7324 29.8577C28.1995 29.4911 28.2798 28.8131 27.9132 28.351C27.7365 28.1268 27.4781 27.9819 27.1947 27.948C26.9113 27.9141 26.626 27.994 26.4015 28.1702ZM11.8518 18.8839C11.4314 18.8831 11.0238 19.0289 10.6993 19.2962C10.3748 19.5635 10.1537 19.9356 10.074 20.3484C9.99426 20.7612 10.061 21.1888 10.2627 21.5577C10.4643 21.9266 10.7883 22.2137 11.1788 22.3694C11.7564 21.4604 12.5399 20.6367 13.4841 19.9185C13.3382 19.609 13.1073 19.3473 12.8182 19.1641C12.5292 18.9809 12.194 18.8837 11.8518 18.8839ZM15.4679 24.308C15.4679 24.7876 15.6584 25.2474 15.9974 25.5865C16.3365 25.9256 16.7964 26.1161 17.2759 26.1161C17.7554 26.1161 18.2153 25.9256 18.5544 25.5865C18.8935 25.2474 19.0839 24.7876 19.0839 24.308C19.0839 23.8285 18.8935 23.3686 18.5544 23.0296C18.2153 22.6905 17.7554 22.5 17.2759 22.5C16.7964 22.5 16.3365 22.6905 15.9974 23.0296C15.6584 23.3686 15.4679 23.8285 15.4679 24.308Z" fill="#FF4502"/>
</svg>

<svg xmlns="http://www.w3.org/2000/svg" width="46" height="45" fill="none"><path fill="#FF4502" d="M26.316 24.308a1.808 1.808 0 1 0 3.617 0 1.808 1.808 0 0 0-3.617 0Zm7.232-5.424a1.803 1.803 0 0 0-1.632 1.035c.944.718 1.728 1.541 2.305 2.45a1.807 1.807 0 0 0-.673-3.485ZM22.7 0C10.275 0 .2 10.075.2 22.5S10.275 45 22.7 45s22.5-10.075 22.5-22.5S35.125 0 22.7 0Zm12.305 24.002a6.53 6.53 0 0 1 .351 2.114c0 4.992-5.665 9.04-12.656 9.04-6.991 0-12.656-4.048-12.656-9.04 0-.728.12-1.436.351-2.114a3.617 3.617 0 0 1 1.457-6.926c1.36 0 2.541.748 3.159 1.858 1.818-.994 4.028-1.647 6.433-1.813l2.934-6.584a1.068 1.068 0 0 1 1.28-.593l4.6 1.331a2.714 2.714 0 0 1 5.103 1.286 2.714 2.714 0 0 1-2.712 2.712 2.714 2.714 0 0 1-2.556-1.813l-4.128-1.19-2.16 4.846c2.466.15 4.731.809 6.59 1.823a3.614 3.614 0 0 1 6.775 1.758 3.633 3.633 0 0 1-2.165 3.305ZM26.4 28.17c-.748.588-2.224 1.22-3.701 1.22-1.477 0-2.958-.632-3.701-1.22a1.072 1.072 0 0 0-1.507.181 1.071 1.071 0 0 0 .18 1.507c1.291 1.024 3.265 1.682 5.028 1.682 1.763 0 3.737-.658 5.032-1.682a1.072 1.072 0 0 0-.537-1.91 1.077 1.077 0 0 0-.794.222Zm-14.55-9.286a1.807 1.807 0 0 0-.672 3.485c.577-.909 1.36-1.732 2.305-2.45a1.803 1.803 0 0 0-1.632-1.035Zm3.617 5.424a1.808 1.808 0 1 0 3.616 0 1.808 1.808 0 0 0-3.616 0Z"/></svg>
